Origami/64x64/apps/khangman.svg

<svg width="64" height="64" version="1" xmlns="http://www.w3.org/2000/svg">
 <path d="m4 56v2c0 1.662 1.338 3 3 3h50c1.662 0 3-1.338 3-3v-2c0 1.662-1.338 3-3 3h-50c-1.662 0-3-1.338-3-3z" style="opacity:.2"/>
 <rect transform="matrix(0,-1,-1,0,0,0)" x="-60" y="-60" width="56" height="56" rx="3" ry="3" style="fill:#7767c0"/>
 <path d="m12 19v40h6v-23.172l10.832-10.828h3.168v10.352a6 6 0 0 0 -4 5.648 6 6 0 0 0 6 6 6 6 0 0 0 6 -6 6 6 0 0 0 -4 -5.6524v-10.348h4v-6h-28zm6 6h5.168l-5.168 5.168v-5.168zm16 14a2 2 0 0 1 2 2 2 2 0 0 1 -2 2 2 2 0 0 1 -2 -2 2 2 0 0 1 2 -2z" style="opacity:.2"/>
 <path d="m7 4c-1.662 0-3 1.338-3 3v1c0-1.662 1.338-3 3-3h50c1.662 0 3 1.338 3 3v-1c0-1.662-1.338-3-3-3h-50z" style="fill:#ffffff;opacity:.1"/>
 <path d="m12 18v40h6v-23.172l10.832-10.828h3.168v10.352a6 6 0 0 0 -4 5.648 6 6 0 0 0 6 6 6 6 0 0 0 6 -6 6 6 0 0 0 -4 -5.6524v-10.348h4v-6h-28zm6 6h5.168l-5.168 5.168v-5.168zm16 14a2 2 0 0 1 2 2 2 2 0 0 1 -2 2 2 2 0 0 1 -2 -2 2 2 0 0 1 2 -2z" style="fill:#7fffff"/>
</svg>

<svg xmlns="http://www.w3.org/2000/svg" width="64" height="64" version="1">
 <path style="opacity:0.2" d="m 4,56 0,2 c 0,1.662 1.338,3 3,3 l 50,0 c 1.662,0 3,-1.338 3,-3 l 0,-2 c 0,1.662 -1.338,3 -3,3 L 7,59 C 5.338,59 4,57.662 4,56 Z"/>
 <rect style="fill:#7767c0" width="56" height="56" x="-60" y="-60" rx="3" ry="3" transform="matrix(0,-1,-1,0,0,0)"/>
 <path style="opacity:0.2" d="m 12,19 0,40 6,0 L 18,35.828 28.832,25 32,25 32,35.352 A 6,6 0 0 0 28,41 a 6,6 0 0 0 6,6 6,6 0 0 0 6,-6 6,6 0 0 0 -4,-5.6524 l 0,-10.348 4,0 0,-6 -28,0 z m 6,6 5.168,0 L 18,30.168 18,25 Z m 16,14 a 2,2 0 0 1 2,2 2,2 0 0 1 -2,2 2,2 0 0 1 -2,-2 2,2 0 0 1 2,-2 z"/>
 <path style="opacity:0.1;fill:#ffffff" d="M 7 4 C 5.338 4 4 5.338 4 7 L 4 8 C 4 6.338 5.338 5 7 5 L 57 5 C 58.662 5 60 6.338 60 8 L 60 7 C 60 5.338 58.662 4 57 4 L 7 4 z"/>
 <path style="fill:#7fffff" d="m 12,18 0,40 6,0 L 18,34.828 28.832,24 32,24 32,34.352 A 6,6 0 0 0 28,40 a 6,6 0 0 0 6,6 6,6 0 0 0 6,-6 6,6 0 0 0 -4,-5.6524 l 0,-10.348 4,0 0,-6 -28,0 z m 6,6 5.168,0 L 18,29.168 18,24 Z m 16,14 a 2,2 0 0 1 2,2 2,2 0 0 1 -2,2 2,2 0 0 1 -2,-2 2,2 0 0 1 2,-2 z"/>
</svg>
